svg/fluentui-system-icons/ic_fluent_person_edit_20_regular.svg

<svg width="20" height="20" viewBox="0 0 20 20" fill="none" xmlns="http://www.w3.org/2000/svg">
<path d="M10 2C7.79086 2 6 3.79086 6 6C6 8.20914 7.79086 10 10 10C12.2091 10 14 8.20914 14 6C14 3.79086 12.2091 2 10 2ZM7 6C7 4.34315 8.34315 3 10 3C11.6569 3 13 4.34315 13 6C13 7.65685 11.6569 9 10 9C8.34315 9 7 7.65685 7 6ZM5.00873 11C3.90315 11 3 11.8869 3 13C3 14.6912 3.83281 15.9663 5.13499 16.7966C6.18457 17.4658 7.53332 17.8459 9.0057 17.9617C9.01428 17.86 9.03122 17.757 9.05716 17.6532L9.2267 16.9751C7.81404 16.8824 6.58095 16.5326 5.67262 15.9534C4.62226 15.2837 4 14.3088 4 13C4 12.4467 4.44786 12 5.00873 12L12.9427 12L13.9427 11L5.00873 11ZM10.9798 15.3772L15.8092 10.5478C16.5395 9.81741 17.7237 9.81741 18.454 10.5478C19.1843 11.2781 19.1843 12.4622 18.454 13.1926L13.6246 18.022C13.343 18.3036 12.9902 18.5033 12.6039 18.5999L11.106 18.9744C10.4546 19.1372 9.86451 18.5472 10.0274 17.8958L10.4018 16.3979C10.4984 16.0116 10.6982 15.6588 10.9798 15.3772Z" fill="#212121"/>
</svg>

<svg xmlns="http://www.w3.org/2000/svg" width="20" height="20"><path d="M10 2a4 4 0 1 0 0 8 4 4 0 0 0 0-8ZM7 6a3 3 0 1 1 6 0 3 3 0 0 1-6 0Zm-1.991 5A2.001 2.001 0 0 0 3 13c0 1.691.833 2.966 2.135 3.797 1.05.669 2.398 1.049 3.87 1.165.01-.102.026-.205.052-.309l.17-.678c-1.413-.093-2.646-.442-3.554-1.022C4.623 15.283 4 14.31 4 13c0-.553.448-1 1.009-1h7.934l1-1H5.009Zm5.97 4.377 4.83-4.83a1.87 1.87 0 1 1 2.645 2.646l-4.83 4.829a2.197 2.197 0 0 1-1.02.578l-1.498.374a.89.89 0 0 1-1.079-1.078l.375-1.498a2.18 2.18 0 0 1 .578-1.02Z"/></svg>
